assets/overlay-overview.svg

<svg fill="none" height="521" viewBox="0 0 812 521" width="812" xmlns="http://www.w3.org/2000/svg" xmlns:xlink="http://www.w3.org/1999/xlink"><filter id="a" color-interpolation-filters="sRGB" filterUnits="userSpaceOnUse" height="510.5" width="814" x="-1" y="11"><feFlood flood-opacity="0" result="BackgroundImageFix"/><feGaussianBlur in="BackgroundImage" stdDeviation="1"/><feComposite in2="SourceAlpha" operator="in" result="effect1_backgroundBlur"/><feBlend in="SourceGraphic" in2="effect1_backgroundBlur" mode="normal" result="shape"/></filter><g filter="url(#a)"><path clip-rule="evenodd" d="m811 13h-810v502.5c0 2.209 1.79084 4 3.99998 4h802.00002c2.209 0 4-1.791 4-4zm-563.5 163.08c6.904 0 12.5-5.599 12.5-12.506s-5.596-12.506-12.5-12.506-12.5 5.599-12.5 12.506 5.596 12.506 12.5 12.506zm.5 180.087c0-2.209 1.791-4 4-4h149c2.209 0 4 1.791 4 4v22.015c0 2.209-1.791 4-4 4h-149c-2.209 0-4-1.791-4-4zm-26-102.048c-2.209 0-4 1.791-4 4v19.013c0 2.209 1.791 4 4 4h59c2.209 0 4-1.791 4-4v-19.013c0-2.209-1.791-4-4-4z" fill="#345255" fill-opacity=".2" fill-rule="evenodd"/></g></svg>

<svg width="812" height="521" viewBox="0 0 812 521" fill="none" xmlns="http://www.w3.org/2000/svg">
<path fill-rule="evenodd" clip-rule="evenodd" d="M811 13H1V515.5C1 517.709 2.79084 519.5 4.99998 519.5H807C809.209 519.5 811 517.709 811 515.5V13ZM247.5 176.08C254.404 176.08 260 170.481 260 163.574C260 156.667 254.404 151.068 247.5 151.068C240.596 151.068 235 156.667 235 163.574C235 170.481 240.596 176.08 247.5 176.08ZM229 356.167C229 353.958 230.791 352.167 233 352.167C235.209 352.167 401 352.167 401 352.167C403.209 352.167 405 353.958 405 356.167V378.182C405 380.391 403.209 382.182 401 382.182H233C230.791 382.182 229 380.391 229 378.182C229 375.973 229 371.473 229 367.174C229 362.876 229 358.376 229 356.167ZM222 254.119C219.791 254.119 218 255.91 218 258.119V277.132C218 279.341 219.791 281.132 222 281.132H281C283.209 281.132 285 279.341 285 277.132V258.119C285 255.91 283.209 254.119 281 254.119H222Z" fill="#345255" fill-opacity="0.2"/>
</svg>
